X: 26000
T: Mayor Harrison's Fedora
R: reel
M: 4/4
K: Edorian
|:F|G2GF GABc|dBAG FADA|Beed efga|(3gfe df e3c|
~d3B A3F|GFEF GABc|dedB AGFA GEFD ~E3:|

